icons/columns-24.svg

<svg width="24" height="25" viewBox="0 0 24 25" fill="none" xmlns="http://www.w3.org/2000/svg">
<path fill-rule="evenodd" clip-rule="evenodd" d="M3.75 2.5C2.7835 2.5 2 3.2835 2 4.25V20.75C2 21.7165 2.7835 22.5 3.75 22.5H9.25C10.2165 22.5 11 21.7165 11 20.75V4.25C11 3.2835 10.2165 2.5 9.25 2.5H3.75ZM3.5 4.25C3.5 4.11193 3.61193 4 3.75 4H9.25C9.38807 4 9.5 4.11193 9.5 4.25V20.75C9.5 20.8881 9.38807 21 9.25 21H3.75C3.61193 21 3.5 20.8881 3.5 20.75V4.25Z" fill="black"/>
<path fill-rule="evenodd" clip-rule="evenodd" d="M14.75 2.5C13.7835 2.5 13 3.2835 13 4.25V20.75C13 21.7165 13.7835 22.5 14.75 22.5H20.25C21.2165 22.5 22 21.7165 22 20.75V4.25C22 3.2835 21.2165 2.5 20.25 2.5H14.75ZM14.5 4.25C14.5 4.11193 14.6119 4 14.75 4H20.25C20.3881 4 20.5 4.11193 20.5 4.25V20.75C20.5 20.8881 20.3881 21 20.25 21H14.75C14.6119 21 14.5 20.8881 14.5 20.75V4.25Z" fill="black"/>
</svg>

<svg xmlns="http://www.w3.org/2000/svg" width="24" height="25" viewBox="0 0 24 25"><path fill-rule="evenodd" d="M3.75 2.5A1.75 1.75 0 002 4.25v16.5c0 .966.784 1.75 1.75 1.75h5.5A1.75 1.75 0 0011 20.75V4.25A1.75 1.75 0 009.25 2.5h-5.5zM3.5 4.25A.25.25 0 013.75 4h5.5a.25.25 0 01.25.25v16.5a.25.25 0 01-.25.25h-5.5a.25.25 0 01-.25-.25V4.25zM14.75 2.5A1.75 1.75 0 0013 4.25v16.5c0 .966.784 1.75 1.75 1.75h5.5A1.75 1.75 0 0022 20.75V4.25a1.75 1.75 0 00-1.75-1.75h-5.5zm-.25 1.75a.25.25 0 01.25-.25h5.5a.25.25 0 01.25.25v16.5a.25.25 0 01-.25.25h-5.5a.25.25 0 01-.25-.25V4.25z"/></svg>
